preferences/32/preferences-desktop-theme-applications.svg

<?xml version="1.0" encoding="UTF-8" standalone="no"?>
<!-- Created with Inkscape (http://www.inkscape.org/) -->

<svg
   width="32"
   height="32"
   version="1.1"
   viewBox="0 0 32 32"
   id="svg22"
   sodipodi:docname="preferences-desktop-theme-applications.svg"
   inkscape:version="1.1.2 (0a00cf5339, 2022-02-04)"
   xmlns:inkscape="http://www.inkscape.org/namespaces/inkscape"
   xmlns:sodipodi="http://sodipodi.sourceforge.net/DTD/sodipodi-0.dtd"
   xmlns:xlink="http://www.w3.org/1999/xlink"
   xmlns="http://www.w3.org/2000/svg"
   xmlns:svg="http://www.w3.org/2000/svg">
  <sodipodi:namedview
     id="namedview24"
     pagecolor="#ffffff"
     bordercolor="#666666"
     borderopacity="1.0"
     inkscape:showpageshadow="2"
     inkscape:pageopacity="0.0"
     inkscape:pagecheckerboard="0"
     inkscape:deskcolor="#d1d1d1"
     showgrid="false"
     inkscape:zoom="25.62"
     inkscape:cx="5.8548009"
     inkscape:cy="11.904762"
     inkscape:window-width="3440"
     inkscape:window-height="1356"
     inkscape:window-x="0"
     inkscape:window-y="0"
     inkscape:window-maximized="1"
     inkscape:current-layer="g35"
     inkscape:pageshadow="2" />
  <defs
     id="defs12">
    <linearGradient
       id="linearGradient1005-3-3"
       x1="5.2535"
       x2="9.3823996"
       y1="15.383"
       y2="2.9421"
       gradientTransform="matrix(0.99999,0,0,0.99999,1.632,-0.61743)"
       gradientUnits="userSpaceOnUse">
      <stop
         stop-color="#fa8200"
         offset="0"
         id="stop2" />
      <stop
         stop-color="#ff9600"
         offset=".36953"
         id="stop4" />
      <stop
         stop-color="#ffb400"
         offset="1"
         id="stop6" />
    </linearGradient>
    <filter
       id="filter4014"
       x="-0.062499933"
       y="-0.057692993"
       width="1.1249999"
       height="1.115386"
       color-interpolation-filters="sRGB">
      <feGaussianBlur
         stdDeviation="1.093751"
         id="feGaussianBlur9" />
    </filter>
    <linearGradient
       inkscape:collect="always"
       xlink:href="#linearGradient3487"
       id="linearGradient3403"
       gradientUnits="userSpaceOnUse"
       x1="6.9491749"
       y1="4.5549412"
       x2="11.215498"
       y2="59.052471" />
    <linearGradient
       id="linearGradient3487">
      <stop
         style="stop-color:#32373c;stop-opacity:1"
         offset="0"
         id="stop3481" />
      <stop
         id="stop3483"
         offset="0.36804965"
         style="stop-color:#1a1a1a;stop-opacity:1" />
      <stop
         style="stop-color:#31363b;stop-opacity:1"
         offset="1"
         id="stop3485" />
    </linearGradient>
    <linearGradient
       inkscape:collect="always"
       xlink:href="#linearGradient20604"
       id="linearGradient20558"
       gradientUnits="userSpaceOnUse"
       x1="25.802212"
       y1="20.373846"
       x2="25.111048"
       y2="58.912758" />
    <linearGradient
       id="linearGradient20604">
      <stop
         id="stop20598"
         offset="0"
         style="stop-color:#3d3d3d;stop-opacity:1" />
      <stop
         style="stop-color:#000000;stop-opacity:1"
         offset="0.61772454"
         id="stop20600" />
      <stop
         id="stop20602"
         offset="1"
         style="stop-color:#3d3d3d;stop-opacity:1" />
    </linearGradient>
    <filter
       inkscape:collect="always"
       style="color-interpolation-filters:sRGB"
       id="filter20720"
       x="-0.017024755"
       y="-0.016457183"
       width="1.0340491"
       height="1.0329144">
      <feGaussianBlur
         inkscape:collect="always"
         stdDeviation="0.14745661"
         id="feGaussianBlur20722" />
    </filter>
    <linearGradient
       gradientTransform="translate(0.36067797,-0.13016949)"
       xlink:href="#linearGradient4555"
       id="linearGradient4557"
       x1="43.499737"
       y1="64.011795"
       x2="44.141731"
       y2="0.30621234"
       gradientUnits="userSpaceOnUse" />
    <linearGradient
       id="linearGradient4555">
      <stop
         style="stop-color:#141618;stop-opacity:1"
         offset="0"
         id="stop4551" />
      <stop
         id="stop4559"
         offset="0.51820582"
         style="stop-color:#686868;stop-opacity:1" />
      <stop
         style="stop-color:#31363b;stop-opacity:1"
         offset="1"
         id="stop4553" />
    </linearGradient>
    <filter
       style="color-interpolation-filters:sRGB"
       id="filter4601"
       x="-0.030244762"
       width="1.0604895"
       y="-0.030100647"
       height="1.0602013">
      <feGaussianBlur
         stdDeviation="0.014790289"
         id="feGaussianBlur4603" />
    </filter>
    <linearGradient
       inkscape:collect="always"
       xlink:href="#a"
       id="linearGradient848"
       gradientUnits="userSpaceOnUse"
       gradientTransform="matrix(0.66667,0,0,0.63518,-256.38,-317.28)"
       y1="543.79999"
       x2="0"
       y2="502.66" />
    <linearGradient
       id="a"
       x2="0"
       y1="543.79999"
       y2="502.66"
       gradientTransform="matrix(0.66667,0,0,0.63518,-256.38,-317.28)"
       gradientUnits="userSpaceOnUse">
      <stop
         stop-color="#c6cdd1"
         offset="0"
         id="stop2-1" />
      <stop
         stop-color="#e0e5e7"
         offset="1"
         id="stop4-5" />
    </linearGradient>
    <linearGradient
       inkscape:collect="always"
       xlink:href="#a"
       id="linearGradient850"
       gradientUnits="userSpaceOnUse"
       gradientTransform="matrix(0.66667,0,0,0.63518,-256.38,-317.28)"
       y1="543.79999"
       x2="0"
       y2="502.66" />
    <linearGradient
       id="linearGradient867"
       x2="0"
       y1="543.79999"
       y2="502.66"
       gradientTransform="matrix(0.66667,0,0,0.63518,-256.38,-317.28)"
       gradientUnits="userSpaceOnUse">
      <stop
         stop-color="#c6cdd1"
         offset="0"
         id="stop863" />
      <stop
         stop-color="#e0e5e7"
         offset="1"
         id="stop865" />
    </linearGradient>
    <linearGradient
       id="b"
       x1="392.28235"
       x2="407.41571"
       y1="520.63226"
       y2="534.10309"
       gradientTransform="matrix(1.0976513,0,0,1.0976513,-35.96371,-48.504825)"
       gradientUnits="userSpaceOnUse">
      <stop
         offset="0"
         id="stop12" />
      <stop
         stop-opacity="0"
         offset="1"
         id="stop14" />
    </linearGradient>
    <linearGradient
       id="c"
       x1="393.41"
       x2="407.41"
       y1="526.65002"
       y2="526.65002"
       gradientTransform="matrix(1.0976513,0,0,1.0976403,-35.794671,-52.723099)"
       gradientUnits="userSpaceOnUse">
      <stop
         stop-color="#2e3436"
         offset="0"
         id="stop7" />
      <stop
         stop-color="#555753"
         offset="1"
         id="stop9" />
    </linearGradient>
  </defs>
  <g
     id="g850"
     transform="matrix(0.88977961,0,0,1.0358159,2.4766145,-0.76150995)">
    <g
       transform="translate(-384.57,-515.8)"
       id="g35">
      <path
         d="M 32,9 31,8 1.123,27 3.555,30 H 28.8 c 1.774,0 3.2,-1.426 3.2,-3.2 z"
         transform="translate(384.57,515.8)"
         id="path19"
         style="fill:url(#linearGradient848)"
         inkscape:connector-curvature="0" />
      <path
         d="M 3.2,2 A 3.192,3.192 0 0 0 0,5.2 V 26.8 C 0,28.575 1.426,30 3.2,30 H 3.555 L 1.123,27 31,8 32,9 V 5.2 C 32,3.425 30.574,2 28.8,2 Z"
         transform="translate(384.57,515.8)"
         id="path21"
         style="fill:url(#linearGradient850)"
         inkscape:connector-curvature="0" />
      <path
         d="m 387.07,517.8 a 2.492,2.492 0 0 0 -2.5,2.5 v 1.5 h 32 v -1.5 a 2.492,2.492 0 0 0 -2.5,-2.5 z"
         id="path23"
         inkscape:connector-curvature="0"
         style="fill:#566069" />
      <path
         d="m 384.57,521.8 h 32 v 1 h -32 z"
         id="path25"
         inkscape:connector-curvature="0"
         style="fill:#3daee9" />
      <rect
         x="385.57001"
         y="523.79999"
         width="30"
         height="20"
         ry="2"
         id="rect27"
         style="fill:#ffffff" />
      <rect
         x="413.57001"
         y="518.79999"
         width="2"
         height="2"
         rx="1"
         id="rect29"
         style="fill:#eff0f1" />
      <path
         d="m 411.25234,525.50093 c 0.74641,0.75299 -1.38194,4.09643 -4.75502,7.46952 -1.30621,1.3051 -2.66949,2.48179 -3.89118,3.35881 l 7.70222,7.67807 h 9.87886 l 1.09217,-8.48045 z m -10.80967,8.61656 -0.0187,0.0143 0.004,0.004 z m 0.15038,0.1866 1.8693,1.88138 a 3.3072232,3.3072232 0 0 0 -1.8693,-1.88138 z m 0.76287,1.7771 c 0.46431,0.42589 0.43906,1.03289 0.43906,1.43134 0,1.28315 -1.9165,3.20514 -5.76267,3.20514 l 3.29954,3.28966 h 9.87886 z"
         id="path31"
         style="opacity:0.25;fill:url(#b);stroke-width:1.09765"
         inkscape:connector-curvature="0" />
      <path
         d="m 410.93402,525.35824 a 1.9208897,8.6440036 44.998 0 0 -7.1501,4.89552 1.9208897,8.6440036 44.998 0 0 -3.40272,3.95154 3.3335669,3.3335669 0 0 1 2.16787,2.16787 1.9208897,8.6440036 44.998 0 0 3.95154,-3.40272 1.9208897,8.6440036 44.998 0 0 4.75283,-7.46952 1.9208897,8.6440036 44.998 0 0 -0.31832,-0.14269 m -11.05884,10.2345 c -3.84177,1.02959 -0.96044,3.46199 -3.84177,5.12603 3.84507,0 5.76266,-1.92309 5.76266,-3.20514 0,-0.63774 0.0659,-1.81442 -1.92089,-1.92089 z"
         id="path33"
         style="fill:url(#c);stroke-width:1.09765"
         inkscape:connector-curvature="0" />
    </g>
  </g>
  <path
     style="display:inline;mix-blend-mode:normal;fill:url(#linearGradient3403);fill-opacity:1;stroke:url(#linearGradient20558);stroke-width:1.16242;stroke-linecap:butt;stroke-linejoin:round;stroke-miterlimit:4;stroke-dasharray:none;stroke-opacity:1;filter:url(#filter20720)"
     d="M 4.7043071,3.9814882 4.6913695,60.80196 H 58.59546 l 1.022155,-2.866369 c 0,0 -23.87537,0.766388 -32.844441,-4.140386 C 16.257548,48.042344 11.401114,4.0978197 11.401114,4.0978197 Z"
     id="path1686"
     sodipodi:nodetypes="ccccscc"
     transform="matrix(0.49530655,0,0,0.49530655,0.32409325,0.23228439)"
     inkscape:label="folder" />
  <rect
     style="display:inline;fill:none;fill-opacity:1;stroke:url(#linearGradient4557);stroke-width:3.71366;stroke-linejoin:round;stroke-miterlimit:7.8;stroke-dasharray:none;stroke-opacity:0.995146;filter:url(#filter4601)"
     id="rect4539"
     width="62.567089"
     height="62.866646"
     x="1.0323594"
     y="0.59551275"
     ry="6.2447233"
     rx="5.8029528"
     transform="matrix(0.46399463,0,0,0.4630489,1.1562887,1.2331482)"
     inkscape:label="contour" />
</svg>

<svg width="32" height="32" version="1.1" viewBox="0 0 32 32" xmlns="http://www.w3.org/2000/svg" xmlns:xlink="http://www.w3.org/1999/xlink">
<defs>
<linearGradient id="linearGradient3403" x1="6.9492" x2="11.215" y1="4.5549" y2="59.052" gradientUnits="userSpaceOnUse">
<stop style="stop-color:#32373c" offset="0"/>
<stop style="stop-color:#1a1a1a" offset=".36805"/>
<stop style="stop-color:#31363b" offset="1"/>
</linearGradient>
<linearGradient id="linearGradient20558" x1="25.802" x2="25.111" y1="20.374" y2="58.913" gradientUnits="userSpaceOnUse">
<stop style="stop-color:#3d3d3d" offset="0"/>
<stop offset=".61772"/>
<stop style="stop-color:#3d3d3d" offset="1"/>
</linearGradient>
<linearGradient id="linearGradient4557" x1="43.5" x2="44.142" y1="64.012" y2=".30621" gradientTransform="translate(.36068 -.13017)" gradientUnits="userSpaceOnUse">
<stop style="stop-color:#141618" offset="0"/>
<stop style="stop-color:#686868" offset=".51821"/>
<stop style="stop-color:#31363b" offset="1"/>
</linearGradient>
<linearGradient id="linearGradient848" x2="0" y1="543.8" y2="502.66" gradientTransform="matrix(.66667 0 0 .63518 -256.38 -317.28)" gradientUnits="userSpaceOnUse" xlink:href="#a"/>
<linearGradient id="a" x2="0" y1="543.8" y2="502.66" gradientTransform="matrix(.66667 0 0 .63518 -256.38 -317.28)" gradientUnits="userSpaceOnUse">
<stop stop-color="#c6cdd1" offset="0"/>
<stop stop-color="#e0e5e7" offset="1"/>
</linearGradient>
<linearGradient id="b" x1="392.28" x2="407.42" y1="520.63" y2="534.1" gradientTransform="matrix(1.0977 0 0 1.0977 -35.964 -48.505)" gradientUnits="userSpaceOnUse">
<stop offset="0"/>
<stop stop-opacity="0" offset="1"/>
</linearGradient>
<linearGradient id="c" x1="393.41" x2="407.41" y1="526.65" y2="526.65" gradientTransform="matrix(1.0977 0 0 1.0976 -35.795 -52.723)" gradientUnits="userSpaceOnUse">
<stop stop-color="#2e3436" offset="0"/>
<stop stop-color="#555753" offset="1"/>
</linearGradient>
</defs>
<g transform="matrix(.88978 0 0 1.0358 2.4766 -.76151)">
<g transform="translate(-384.57,-515.8)">
<path transform="translate(384.57,515.8)" d="m32 9-1-1-29.877 19 2.432 3h25.245c1.774 0 3.2-1.426 3.2-3.2z" style="fill:url(#linearGradient848)"/>
<path transform="translate(384.57,515.8)" d="m3.2 2a3.192 3.192 0 0 0-3.2 3.2v21.6c0 1.775 1.426 3.2 3.2 3.2h0.355l-2.432-3 29.877-19 1 1v-3.8c0-1.775-1.426-3.2-3.2-3.2z" style="fill:url(#linearGradient848)"/>
<path d="m387.07 517.8a2.492 2.492 0 0 0-2.5 2.5v1.5h32v-1.5a2.492 2.492 0 0 0-2.5-2.5z" style="fill:#566069"/>
<path d="m384.57 521.8h32v1h-32z" style="fill:#3daee9"/>
<rect x="385.57" y="523.8" width="30" height="20" ry="2" style="fill:#fff"/>
<rect x="413.57" y="518.8" width="2" height="2" rx="1" style="fill:#eff0f1"/>
<path d="m411.25 525.5c0.74641 0.75299-1.3819 4.0964-4.755 7.4695-1.3062 1.3051-2.6695 2.4818-3.8912 3.3588l7.7022 7.6781h9.8789l1.0922-8.4804zm-10.81 8.6166-0.0187 0.0143 4e-3 4e-3zm0.15038 0.1866 1.8693 1.8814a3.3072 3.3072 0 0 0-1.8693-1.8814zm0.76287 1.7771c0.46431 0.42589 0.43906 1.0329 0.43906 1.4313 0 1.2832-1.9165 3.2051-5.7627 3.2051l3.2995 3.2897h9.8789z" style="fill:url(#b);opacity:.25;stroke-width:1.0976"/>
<path d="m410.93 525.36a1.9209 8.644 44.998 0 0-7.1501 4.8955 1.9209 8.644 44.998 0 0-3.4027 3.9515 3.3336 3.3336 0 0 1 2.1679 2.1679 1.9209 8.644 44.998 0 0 3.9515-3.4027 1.9209 8.644 44.998 0 0 4.7528-7.4695 1.9209 8.644 44.998 0 0-0.31832-0.14269m-11.059 10.234c-3.8418 1.0296-0.96044 3.462-3.8418 5.126 3.8451 0 5.7627-1.9231 5.7627-3.2051 0-0.63774 0.0659-1.8144-1.9209-1.9209z" style="fill:url(#c);stroke-width:1.0976"/>
</g>
</g>
<path transform="matrix(.49531 0 0 .49531 .32409 .23228)" d="m4.7043 3.9815-0.012938 56.82h53.904l1.0222-2.8664s-23.875 0.76639-32.844-4.1404c-10.516-5.7529-15.372-49.697-15.372-49.697z" style="fill:url(#linearGradient3403);mix-blend-mode:normal;stroke-linejoin:round;stroke-width:1.1624;stroke:url(#linearGradient20558)"/>
<rect transform="matrix(.46399 0 0 .46305 1.1563 1.2331)" x="1.0324" y=".59551" width="62.567" height="62.867" rx="5.803" ry="6.2447" style="fill:none;stroke-linejoin:round;stroke-miterlimit:7.8;stroke-opacity:.99515;stroke-width:3.7137;stroke:url(#linearGradient4557)"/>
</svg>
